svgs/sharp-duotone-solid/brush.svg

<svg xmlns="http://www.w3.org/2000/svg" viewBox="0 0 384 512"><!--! Font Awesome Pro 7.1.0 by @fontawesome - https://fontawesome.com License - https://fontawesome.com/license (Commercial License) Copyright 2025 Fonticons, Inc. --><path opacity=".4" fill="currentColor" d="M0 0l0 288 384 0 0-288-160 0-32 64-32-64-32 0-32 64-32-64-64 0z"/><path fill="currentColor" d="M0 288l384 0 0 96-128 0 0 128-128 0 0-128-128 0 0-96zM192 464c8.8 0 16-7.2 16-16s-7.2-16-16-16-16 7.2-16 16 7.2 16 16 16z"/></svg>

<svg xmlns="http://www.w3.org/2000/svg" viewBox="0 0 384 512"><!--! Font Awesome Pro 6.7.2 by @fontawesome - https://fontawesome.com License - https://fontawesome.com/license (Commercial License) Copyright 2024 Fonticons, Inc. --><defs><style>.fa-secondary{opacity:.4}</style></defs><path class="fa-secondary" d="M0 0L0 288l384 0L384 0 224 0 192 64 160 0 128 0 96 64 64 0 0 0z"/><path class="fa-primary" d="M0 288l384 0 0 96-128 0 0 128-128 0 0-128L0 384l0-96zM192 464a16 16 0 1 0 0-32 16 16 0 1 0 0 32z"/></svg>
